img/icon/promo-delivery.svg

<svg width="78" height="63" viewBox="0 0 78 63" fill="none" xmlns="http://www.w3.org/2000/svg">
<path d="M25.983 63C30.1251 63 33.483 59.6421 33.483 55.5C33.483 51.3579 30.1251 48 25.983 48C21.8408 48 18.483 51.3579 18.483 55.5C18.483 59.6421 21.8408 63 25.983 63Z" fill="white"/>
<path d="M59.982 63C64.1241 63 67.482 59.6421 67.482 55.5C67.482 51.3579 64.1241 48 59.982 48C55.8399 48 52.482 51.3579 52.482 55.5C52.482 59.6421 55.8399 63 59.982 63Z" fill="white"/>
<path fill-rule="evenodd" clip-rule="evenodd" d="M11.062 0H64C64 0 78 14.812 78 33.688V48.938C78 48.938 77.812 53 74.875 53.001H73.166C71.992 46.74 66.507 42.001 59.906 42.001C53.306 42.001 47.82 46.74 46.646 53.001H39.242C38.068 46.74 32.583 42.001 25.983 42.001C19.383 42.001 13.897 46.74 12.724 53.001H10.625C10.625 53.001 8.061 52.377 8.061 49.189V33.574L22.812 32.814C22.812 32.814 28.295 32.211 29.102 29.058L5.446 27.804C3.58204 27.804 2.071 26.293 2.071 24.429C2.071 22.565 3.58204 21.054 5.446 21.054H14.502L22.812 20.626C22.812 20.626 30.989 20.018 31.75 16.821L31.554 16.778L3.469 14.938C1.55312 14.938 0 13.3849 0 11.469C0 9.55312 1.55312 8 3.469 8H8.062V3.125C8.062 3.125 7.874 0 11.062 0ZM52 8.938V23.938H67.812L62.062 8.938H52Z" fill="white"/>
</svg>

<svg width="78" height="63" fill="none" xmlns="http://www.w3.org/2000/svg"><path d="M25.983 63c4.1421 0 7.5-3.3579 7.5-7.5s-3.3579-7.5-7.5-7.5c-4.1422 0-7.5 3.3579-7.5 7.5s3.3578 7.5 7.5 7.5zM59.982 63c4.1421 0 7.5-3.3579 7.5-7.5s-3.3579-7.5-7.5-7.5-7.5 3.3579-7.5 7.5 3.3579 7.5 7.5 7.5z" fill="#fff"/><path fill-rule="evenodd" clip-rule="evenodd" d="M11.062 0H64s14 14.812 14 33.688v15.25s-.188 4.062-3.125 4.063h-1.709c-1.174-6.261-6.659-11-13.26-11-6.6 0-12.086 4.739-13.26 11h-7.404c-1.174-6.261-6.659-11-13.259-11-6.6 0-12.086 4.739-13.259 11h-2.099s-2.564-.624-2.564-3.812V33.574l14.751-.76s5.483-.603 6.29-3.756L5.446 27.804c-1.864 0-3.375-1.511-3.375-3.375s1.511-3.375 3.375-3.375h9.056l8.31-.428s8.177-.608 8.938-3.805l-.196-.043-28.085-1.84C1.5531 14.938 0 13.3849 0 11.469S1.5531 8 3.469 8h4.593V3.125S7.874 0 11.062 0zM52 8.938v15h15.812l-5.75-15H52z" fill="#fff"/></svg>
